X:138
T:October In Cape Breton, Waltz
R:waltz
C:Bruce Osborne (Oct.2005)
Z:abc by bosborne@kos.net
M:3/4
L:1/8
K:C
Gc d|e3 e ga|_b2 a2 g2|f3 e fg|e3 e cd|\
e3 e fg|a2 g2 e2|d3 c BA|G3 G cd|\
e3 e ga|_b2 a2 g2|f3 e fg|e3 e cd|\
e3 e ge|d3 c Bd|c3 B cd|c4 cB||\
A4 AB|c2 B2 A2|G3 A GE|G4 cc|\
B3 A Bc|d3 f ed|c3 B cd|e4 cB|\
A4 AB|c2 B2 A2|G3 A GE|G4 cc|\
B3 A Bc|d3 f ed|c3 B cd|c3||
